packages/elvis-assets-icons/icons/svg/src/credit_card.svg

<svg width="24" height="24" viewBox="0 0 24 24" fill="none" xmlns="http://www.w3.org/2000/svg">
<path fill-rule="evenodd" clip-rule="evenodd" d="M2.25 4.5C1.83579 4.5 1.5 4.83579 1.5 5.25V18.75C1.5 19.1642 1.83579 19.5 2.25 19.5H21.75C22.1642 19.5 22.5 19.1642 22.5 18.75V5.25C22.5 4.83579 22.1642 4.5 21.75 4.5H2.25ZM0 5.25C0 4.00736 1.00736 3 2.25 3H21.75C22.9926 3 24 4.00736 24 5.25V18.75C24 19.9926 22.9926 21 21.75 21H2.25C1.00736 21 0 19.9926 0 18.75V5.25Z" fill="black"/>
<path fill-rule="evenodd" clip-rule="evenodd" d="M0 8.25C0 7.83579 0.335786 7.5 0.75 7.5H23.25C23.6642 7.5 24 7.83579 24 8.25C24 8.66421 23.6642 9 23.25 9H0.75C0.335786 9 0 8.66421 0 8.25Z" fill="black"/>
<path fill-rule="evenodd" clip-rule="evenodd" d="M4.5 12.75C4.5 12.3358 4.83579 12 5.25 12H13.5C13.9142 12 14.25 12.3358 14.25 12.75C14.25 13.1642 13.9142 13.5 13.5 13.5H5.25C4.83579 13.5 4.5 13.1642 4.5 12.75Z" fill="black"/>
<path fill-rule="evenodd" clip-rule="evenodd" d="M4.5 15.75C4.5 15.3358 4.83579 15 5.25 15H10.5C10.9142 15 11.25 15.3358 11.25 15.75C11.25 16.1642 10.9142 16.5 10.5 16.5H5.25C4.83579 16.5 4.5 16.1642 4.5 15.75Z" fill="black"/>
</svg>

<svg width="24" height="24" fill="none" xmlns="http://www.w3.org/2000/svg"><path fill-rule="evenodd" clip-rule="evenodd" d="M2.25 4.5a.75.75 0 00-.75.75v13.5c0 .414.336.75.75.75h19.5a.75.75 0 00.75-.75V5.25a.75.75 0 00-.75-.75H2.25zM0 5.25A2.25 2.25 0 012.25 3h19.5A2.25 2.25 0 0124 5.25v13.5A2.25 2.25 0 0121.75 21H2.25A2.25 2.25 0 010 18.75V5.25z" fill="#000"/><path fill-rule="evenodd" clip-rule="evenodd" d="M0 8.25a.75.75 0 01.75-.75h22.5a.75.75 0 010 1.5H.75A.75.75 0 010 8.25zM4.5 12.75a.75.75 0 01.75-.75h8.25a.75.75 0 010 1.5H5.25a.75.75 0 01-.75-.75zM4.5 15.75a.75.75 0 01.75-.75h5.25a.75.75 0 010 1.5H5.25a.75.75 0 01-.75-.75z" fill="#000"/></svg>
